X:795
T:Xiraldilla (CT 183)
R:Xiraldilla
C:Tradicional
S:Msica Tradicional Asturiana, (C) Tello & Tito. Asturies, 2001.
S:http://pagina.de/MusTradAst <telloytito@asturies.org>
N:Xiraldilla, dictada por Pilar Garca Martnez, de veintiocho aos, de Teberga.
A:Asturies
O:Teberga
Z:Cancioneru de Torner 183
M:3/8
L:1/8
Q:3/8=80
K:G
|G2 G|GAB|c2 d|cBA|B2 B|c2 B|AFG|A2 B|AGG|G2 G :||
W:Caminan para Roma
W:dos peregrinos,
W:hijos de dos hermanos:
W:carnales primos.
W:
W:En allegando a Roma
W:piden posada,
W:porque la peregrina
W:viene cansada.
W:
W:En descansando un poco
W:van al palacio;
W:preguntan por la silla
W:del Padre Santo.
W:
W:El Padre Santo dice:
W:-Qu quieris, hijos
W:-Queremos la licencia
W:primo con primo.
W:
W:El Padre Santo dice:
W:Qu hermosa nia!
W:Aunque tenga un pecado
W:no es mararavilla.
W:
